X: 489
T: Moll Peatly the new Way
P: Longways for as many as will
%R: jig
B: "The Dancing-Master" printed by John Walsh, London
S: 6: CCDM1 http://imslp.org/wiki/The_Compleat_Country_Dancing-Master_(Various) V.1 p.21 #46
B: "The Dancing-Master: Containing Directions and Tunes for Dancing" printed by W. Pearson for John Walsh, London ca. 1709
S: 7: DMDfD http://digital.nls.uk/special-collections-of-printed-music/pageturner.cfm?id=89751228 p.247 "Y 4"
Z: 2013 John Chambers <jc:trillian.mit.edu>
N: Adjusted long notes to get correct rhythm at phrase boundaries.  (Also added initial rest.)
N: The final A in bar 12 is high (a) in DMDfD and low (A) in CCDM1.
N: The title dance description differ trivially in spelling and punctuation.
M: 6/4
L: 1/4
K: Dm
% - - - - - - - - - - - - - - - - - - - - - - - - -
z |\
d3 f3 | A2B c>BA |\
d2e f>gf | e2d d2 |] d/e/ |\
f>gf cAF | f3- f2e/f/ |\
g>ag gec |
g3- g2f/e/ |\
d2e f2g | a2A ^c2[aA] |\
a2A ^c2A | a2A ^c2A |\
agf e2d | d3- d2 |]
% - - - - - - - - - - - - - - - - - - - - - - - - -
%%begintext align
%% The 1st Man begins on the We. Side, the 1st Cu. Sides to
%% the 2d Cu. of one Side, then on the other Side; then hit
%% your right Elbows together, and then your Left, and turn
%% your left Hands behind, and your right Hands before, and
%% turn twice round; then your left Elbows together and turn
%% as before, and so to the next.
%%endtext
%%sep 1 1 500
% - - - - - - - - - - - - - - - - - - - - - - - - -
%%begintext align
%% The 1. man begins on the womens side, the 1. cu. sides to the 2. cu. of one side, and then on the other
%% side; then hit your right Elbows together, and then your left, and turn with your left-hands behind,
%% and your right-hands before, and turn twice round; and then your left elbows together and turn as
%% before, and so to the next.
%% [DMDfD]
%%endtext
%%sep 1 8 500

%%sep 1 1 500
%%sep 1 1 500
